X:1
T:Title
L:1/8
Q:1/4=100
M:2/4
K:D
V:1 treble nm="Piano, melody" snm="Pno."
V:1
 z4 | z2 z D | GG BB | G2 DD | D>D A/G/F/E/ | D2 z D | GG BB | G2 DG | FE/F/ GC | D2 z D | %10
 FF G/F/E/F/ | G2 DG | FF F/=c/A/F/ | G3 G | EE EG | G2 DD | D>D AF | G3 G | F/E/E E/G/F/A/ | %19
 G2 DD | D>D AF | G2 z D | GG BB | G2 DD | D>D A/G/F/E/ | D2 z D | GG BB | G2 DG | FE/F/ GC | %29
 D2 z D | FF G/F/E/F/ | G2 DG | FF F/=c/A/F/ | G3 G | EE EG | G2 DD | D>D AF | G3 G | %38
 F/E/E E/G/F/A/ | G2 DD | D>D AF | G2 z D | GG BB | G2 DD | D>D A/G/F/E/ | D2 z D | GG BB | G2 DG | %48
 FE/F/ GC | D2 z D | FF G/F/E/F/ | G2 DG | FF F/=c/A/F/ | G3 G | EE EG | G2 DD | D>D AF | G3 G | %58
 F/E/E E/G/F/A/ | G2 DD | D>D AF | G2 z D | GG BB | G2 DD | D>D A/G/F/E/ | D2 z D | GG BB | G2 DG | %68
 FE/F/ GC | D2 z D | FF G/F/E/F/ | G2 DG | FF F/=c/A/F/ | G3 G | EE EG | G2 DD | D>D AF | G3 G | %78
 F/E/E E/G/F/A/ | G2 DD | D>D AF | G2 z D | GG BB | G2 DD | D>D A/G/F/E/ | D2 z D | GG BB | G2 DG | %88
 FE/F/ GC | D2 z D | FF G/F/E/F/ | G2 DG | FF F/=c/A/F/ | G3 G | EE EG | G2 DD | D>D AF | G3 G | %98
 F/E/E E/G/F/A/ | G2 DD | D>D AF | G2 z D | GG BB | G2 DD | D>D A/G/F/E/ | D2 z D | GG BB | G2 DG | %108
 FE/F/ GC | D2 z D | FF G/F/E/F/ | G2 DG | FF F/=c/A/F/ | G3 G | EE EG | G2 DD | D>D AF | G3 G | %118
 F/E/E E/G/F/A/ | G2 DD | D>D AF | G2 z D | GG BB | G2 DD | D>D A/G/F/E/ | D2 z D | GG BB | G2 DG | %128
 FE/F/ GC | D2 z D | FF G/F/E/F/ | G2 DG | FF F/=c/A/F/ | G3 G | EE EG | G2 DD | D>D AF | G3 G | %138
 F/E/E E/G/F/A/ | G2 DD | D>D AF | G2 z D | GG BB | G2 DD | D>D A/G/F/E/ | D2 z D | GG BB | G2 DG | %148
 FE/F/ GC | D2 z D | FF G/F/E/F/ | G2 DG | FF F/=c/A/F/ | G3 G | EE EG | G2 DD | D>D AF | G3 G | %158
 F/E/E E/G/F/A/ | G2 DD | D>D AF | G2 z D | GG BB | G2 DD | D>D A/G/F/E/ | D2 z D | GG BB | G2 DG | %168
 FE/F/ GC | D2 z D | FF G/F/E/F/ | G2 DG | FF F/=c/A/F/ | G3 G | EE EG | G2 DD | D>D AF | G3 G | %178
 F/E/E E/G/F/A/ | G2 DD | D>D AF | G2 z2 |] %182

